X: 75
M: 6/8
L: 1/8
K: G
g |\
dcB cBA | G2G G2D | GFG ABc | TB2A G2g |\
dcB cBA | G2G G2g | fed ed^c | d2d d2 :|
|: d |\


